src/icons/solid/media/audio-off.svg

<svg width="24" height="24" viewBox="0 0 24 24" fill="none" xmlns="http://www.w3.org/2000/svg">
<g clip-path="url(#clip0_4569_420)">
<path d="M2.48047 3.21971C2.77062 2.92177 3.25097 2.93155 3.54102 3.21971L8.67285 8.34862L9.52344 9.20311L13.5547 13.2383L14.6055 14.2822L16.5967 16.2705H16.5859L19.8477 19.5303C20.1478 19.8185 20.1378 20.2957 19.8477 20.584C19.6976 20.733 19.5074 20.8027 19.3174 20.8027C19.1273 20.8027 18.9372 20.733 18.7871 20.584L14.6055 16.3994V20.2754C14.6055 20.5437 14.4652 20.7829 14.2451 20.9121C14.1352 20.9716 14.0252 21.0009 13.9053 21.001C13.7752 21.001 13.6452 20.9612 13.5352 20.8916L8.10254 17.3838H6.06152C3.82066 17.3837 2 15.4451 2 13.0498C2.00002 10.6545 3.82068 8.71691 6.06152 8.71678H6.92188L2.48047 4.27342C2.18034 3.98519 2.19034 3.50795 2.48047 3.21971Z" fill="#3C3B44"/>
<path d="M18.8271 7.35448C19.1073 7.07624 19.5473 7.08677 19.8174 7.37499C22.6285 10.3965 22.7192 15.237 20.1182 18.3877L19.0977 17.3633C21.1783 14.7691 21.0985 10.8428 18.8076 8.37792C18.5376 8.08967 18.547 7.63276 18.8271 7.35448Z" fill="#3C3B44"/>
<path d="M16.6865 9.66014C16.9667 9.38215 17.4067 9.39251 17.6768 9.68065C19.3174 11.4598 19.3773 14.2826 17.8867 16.1611L16.8867 15.1572C17.8671 13.8353 17.8065 11.9071 16.666 10.6846C16.3959 10.3963 16.4064 9.93843 16.6865 9.66014Z" fill="#3C3B44"/>
<path d="M13.5449 5.20799C13.7649 5.06894 14.0349 5.05854 14.2549 5.18749C14.475 5.3167 14.6152 5.56578 14.6152 5.82421V12.8711L13.2148 11.4795H13.2246L10.5732 8.82518L9.5332 7.79198L13.5449 5.20799Z" fill="#3C3B44"/>
</g>
<defs>
<clipPath id="clip0_4569_420">
<rect width="24" height="24" fill="white"/>
</clipPath>
</defs>
</svg>

<svg xmlns="http://www.w3.org/2000/svg" width="24" height="24" fill="none" viewBox="0 0 24 24"><g fill="currentColor" clip-path="url(#a)"><path d="M2.48 3.22a.75.75 0 0 1 1.061 0l5.132 5.129.85.854 4.032 4.035 1.05 1.044 1.992 1.988h-.011l3.262 3.26c.3.288.29.766 0 1.054a.75.75 0 0 1-.53.219c-.19 0-.38-.07-.53-.219L14.604 16.4v3.875c0 .269-.14.508-.36.637a.7.7 0 0 1-.71-.02l-5.432-3.508h-2.04C3.82 17.384 2 15.445 2 13.05s1.82-4.333 4.062-4.333h.86L2.48 4.273a.74.74 0 0 1 0-1.053m16.347 4.135a.684.684 0 0 1 .99.02c2.811 3.022 2.902 7.862.301 11.013l-1.02-1.025c2.08-2.594 2-6.52-.29-8.985a.74.74 0 0 1 .02-1.023"/><path d="M16.687 9.66a.684.684 0 0 1 .99.02c1.64 1.78 1.7 4.603.21 6.481l-1-1.004c.98-1.322.92-3.25-.221-4.472a.74.74 0 0 1 .02-1.025m-3.141-4.452c.22-.139.49-.15.71-.02.22.129.36.378.36.636v7.047l-1.4-1.392h.01l-2.652-2.654-1.04-1.033z"/></g><defs><clipPath id="a"><path fill="currentColor" d="M0 0h24v24H0z"/></clipPath></defs></svg>
